packages/bezier-icons/icons/shuffle.svg

<svg width="24" height="24" viewBox="0 0 24 24" fill="none" xmlns="http://www.w3.org/2000/svg">
<path d="M17 10.0686V8H16.0826C15.1037 8 14.1863 8.47763 13.6249 9.27961L9.01354 15.8673C8.07789 17.2039 6.54895 18 4.91738 18H3C2.44772 18 2 17.5523 2 17C2 16.4477 2.44772 16 3 16H4.91738C5.89632 16 6.81369 15.5224 7.37507 14.7204L11.9865 8.13269C12.9221 6.79606 14.4511 6 16.0826 6H17V3.93137C17 3.21864 17.8617 2.86171 18.3657 3.36568L21.2929 6.29289C21.6834 6.68341 21.6834 7.31658 21.2929 7.7071L18.3657 10.6343C17.8617 11.1383 17 10.7813 17 10.0686Z" fill="#313234"/>
<path d="M9.01354 8.13269L9.88967 9.38431L8.66902 11.1281L7.37507 9.27961C6.81369 8.47763 5.89632 8 4.91738 8H3C2.44772 8 2 7.55229 2 7C2 6.44771 2.44772 6 3 6H4.91738C6.54895 6 8.07789 6.79605 9.01354 8.13269Z" fill="#313234"/>
<path d="M11.9865 15.8673L11.1103 14.6157L12.331 12.8719L13.6249 14.7204C14.1863 15.5224 15.1037 16 16.0826 16H17V13.9316C17 13.2189 17.8617 12.862 18.3657 13.3659L21.2929 16.2931C21.6834 16.6837 21.6834 17.3168 21.2929 17.7073L18.3657 20.6346C17.8617 21.1385 17 20.7816 17 20.0689V18H16.0826C14.4511 18 12.9221 17.2039 11.9865 15.8673Z" fill="#313234"/>
</svg>

<svg xmlns="http://www.w3.org/2000/svg" width="24" height="24" fill="none" viewBox="0 0 24 24"><path fill="#313234" d="M17 10.069V8h-.917a3 3 0 0 0-2.458 1.28l-4.611 6.587A5 5 0 0 1 4.917 18H3a1 1 0 1 1 0-2h1.917a3 3 0 0 0 2.458-1.28l4.611-6.587A5 5 0 0 1 16.084 6H17V3.931a.8.8 0 0 1 1.366-.565l2.927 2.927a1 1 0 0 1 0 1.414l-2.927 2.927A.8.8 0 0 1 17 10.07"/><path fill="#313234" d="m9.014 8.133.876 1.251-1.221 1.744L7.375 9.28A3 3 0 0 0 4.917 8H3a1 1 0 1 1 0-2h1.917a5 5 0 0 1 4.097 2.133M11.987 15.867l-.877-1.251 1.221-1.744 1.294 1.848A3 3 0 0 0 16.083 16H17v-2.068a.8.8 0 0 1 1.366-.566l2.927 2.927a1 1 0 0 1 0 1.414l-2.927 2.928A.8.8 0 0 1 17 20.069V18h-.917a5 5 0 0 1-4.096-2.133"/></svg>
